jekyll/_src/images/embed/i-github.svg

<?xml version="1.0" encoding="UTF-8" standalone="no"?>
<svg width="36px" height="36px" viewBox="0 0 36 36" version="1.1" xmlns="http://www.w3.org/2000/svg" xmlns:xlink="http://www.w3.org/1999/xlink" xmlns:sketch="http://www.bohemiancoding.com/sketch/ns">
    <title>i-github</title>
    <description>Created with Sketch (http://www.bohemiancoding.com/sketch)</description>
    <defs></defs>
    <g id="Page-1" stroke="none" stroke-width="1" fill="none" fill-rule="evenodd" sketch:type="MSPage">
        <circle id="Oval" stroke-opacity="0.658691406" stroke="#4BC6DF" sketch:type="MSShapeGroup" cx="18" cy="18" r="17"></circle>
        <path d="M18.0005522,34.9999994 C15.7789252,35.0590541 13.4943371,34.4999994 13.4943371,34.4999994 C13.4943371,34.4999994 13.523067,32.4792906 13.514227,30.9395831 C8.50744345,32.0544265 7.45105743,28.4651746 7.45105743,28.4651746 C6.63224777,26.3329234 5.45210105,25.765305 5.45210105,25.765305 C3.81779674,24.6210043 5.57586175,24.6436637 5.57586175,24.6436637 C7.38254704,24.7739554 8.33285245,26.5459219 8.33285245,26.5459219 C9.93842659,29.3658865 12.5462414,28.5512804 13.5716873,28.0788316 C13.7352282,26.8869462 14.2004359,26.073473 14.7142638,25.6123539 C10.717456,25.1467028 6.5151171,23.5628095 6.5151171,16.490805 C6.5151171,14.4763827 7.2167961,12.82791 8.36821265,11.5385891 C8.1836766,11.0718051 7.56597808,9.19447232 8.54501366,6.65435152 C8.54501366,6.65435152 10.0555573,6.15811026 13.4943368,8.54641295 C14.930845,8.13627748 16.4701188,7.93234271 18.0005525,7.92441192 C19.5298812,7.93234271 21.069155,8.13627748 22.5067682,8.54641295 C25.9433377,6.15811026 27.4527763,6.65435152 27.4527763,6.65435152 C28.4340219,9.19447232 27.8163234,11.0718051 27.6317873,11.5385891 C28.7854139,12.82791 29.4815679,14.4763827 29.4815679,16.490805 C29.4815679,23.580937 25.2725989,25.141038 21.2636361,25.5976253 C21.9100648,26.1675096 22.485773,27.2936827 22.485773,29.0157985 C22.485773,31.4822762 22.4857721,34.4999994 22.4857721,34.4999994 C22.4857721,34.4999994 20.2740442,34.9395659 18.0005522,34.9999994 Z" id="Shape" fill="#4BC6DF" sketch:type="MSShapeGroup"></path>
    </g>
</svg>

<svg width="36" height="36" viewBox="0 0 36 36" xmlns="http://www.w3.org/2000/svg">
    <g fill="none">
        <circle stroke-opacity=".659" stroke="#4BC6DF" cx="18" cy="18" r="17"/>
        <path d="M18.001 35c-2.222.059-4.506-.5-4.506-.5s.029-2.021.02-3.56c-5.007 1.115-6.063-2.474-6.063-2.474-.819-2.132-1.999-2.7-1.999-2.7-1.634-1.144.124-1.122.124-1.122 1.807.13 2.757 1.902 2.757 1.902 1.606 2.82 4.213 2.005 5.239 1.533.164-1.192.629-2.005 1.143-2.466-3.997-.466-8.199-2.05-8.199-9.122 0-2.014.702-3.663 1.853-4.952-.185-.467-.802-2.344.177-4.884 0 0 1.511-.496 4.949 1.892 1.437-.41 2.976-.614 4.506-.622 1.529.008 3.069.212 4.506.622 3.437-2.388 4.946-1.892 4.946-1.892.981 2.54.364 4.417.179 4.884 1.154 1.289 1.85 2.938 1.85 4.952 0 7.09-4.209 8.65-8.218 9.107.646.57 1.222 1.696 1.222 3.418v5.484s-2.212.44-4.485.5z" fill="#4BC6DF"/>
    </g>
</svg>
